X: 33172
T: Private Ass And Cart
R: reel
M: 4/4
K: Dmajor
F~F2A GE~E2|FDDF ABAG|F~F2D GE~E2|AzGE EDDE|
F~F2D GE~E2|FDDF AzAG|F~F2D GE~E2|AzGE EDDz||
(3Bcd ec d2ed|cAGE ~A3z|(3Bcd ec dged|cAGE EDDz|
(3Bcd ec dzed|cAGE ~A3B|czcd e~e2d|cAGE EDDE||

